icons/lock-close-filled.svg

<svg xmlns="http://www.w3.org/2000/svg" width="24" height="24" viewBox="0 0 24 24">
    <path fill="#3A3A47" fill-rule="evenodd" d="M12 2c3.905 0 5.904 1.589 5.997 4.767l.003.235v2c1.273 0 1.938.608 1.996 1.822l.004.178v9c0 1.273-.607 1.938-1.822 1.996l-.178.004H6.002c-1.274 0-1.94-.607-1.998-1.822L4 20.002V11.03c0-1.29.607-1.964 1.822-2.023L6 9.002l.002-2C6 3.667 8 2 12 2zm0 11.002c-.667 0-1 .333-1 1v3c0 .667.333 1 1 1s1-.333 1-1v-3c0-.667-.333-1-1-1zm0-9c-4.003 0-4 2-4 5h8.003v-.377c-.008-2.79-.17-4.623-4.003-4.623z"/>
</svg>

<svg width="24" height="24" viewBox="0 0 24 24" fill="none" xmlns="http://www.w3.org/2000/svg">
<path fill-rule="evenodd" clip-rule="evenodd" d="M6 9.002L6.002 7.002C6 3.667 8 2 12 2C16 2 18 3.667 18 7.002V9.002C19.333 9.002 20 9.669 20 11.002V20.002C20 21.335 19.333 22.002 18 22.002H6.002C4.667 22.002 4 21.335 4 20.002V11.03C4 9.679 4.667 9.003 6 9.003V9.002ZM11 17.002C11 17.669 11.333 18.002 12 18.002C12.667 18.002 13 17.669 13 17.002V14.002C13 13.335 12.667 13.002 12 13.002C11.333 13.002 11 13.335 11 14.002V17.002ZM16.003 9.002C16.003 6.002 16.003 4.002 12 4.002C7.997 4.002 8 6.002 8 9.002H16.003Z" fill="#3A3A47"/>
</svg>
